wp_data/wp-content/themes/eurostone/assets/images/kitchen/silestone_logo.svg

<svg width="257" height="43" viewBox="0 0 257 43" fill="none" xmlns="http://www.w3.org/2000/svg">
<path d="M145.749 20.6586C145.802 22.1423 145.548 23.6209 145.002 25.0029C144.456 26.385 143.631 27.641 142.577 28.6932C141.523 29.7453 140.262 30.5713 138.874 31.1199C137.485 31.6685 135.998 31.928 134.505 31.8824C133.013 31.913 131.53 31.6423 130.146 31.087C128.762 30.5316 127.505 29.7029 126.453 28.6513C125.401 27.5996 124.574 26.3467 124.023 24.9684C123.472 23.5901 123.208 22.115 123.248 20.6325C123.196 19.1325 123.449 17.6375 123.991 16.2366C124.534 14.8357 125.354 13.5576 126.404 12.4784C127.454 11.3991 128.711 10.5408 130.102 9.95467C131.493 9.36849 132.988 9.06641 134.498 9.06641C136.009 9.06641 137.504 9.36849 138.895 9.95467C140.286 10.5408 141.543 11.3991 142.593 12.4784C143.643 13.5576 144.463 14.8357 145.005 16.2366C145.548 17.6375 145.801 19.1325 145.749 20.6325V20.6586ZM140.797 20.5282C140.835 19.4244 140.605 18.3277 140.127 17.3307C139.653 16.2684 138.884 15.3628 137.909 14.7205C136.935 14.0782 135.796 13.726 134.627 13.7054C133.458 13.6848 132.307 13.9967 131.31 14.6044C130.313 15.212 129.512 16.09 129.001 17.135C128.136 18.9324 127.986 20.9878 128.581 22.8904C128.771 23.6587 129.113 24.3821 129.585 25.0192C130.058 25.6562 130.652 26.1944 131.334 26.603C132.016 27.0115 132.772 27.2824 133.56 27.4C134.348 27.5177 135.151 27.4798 135.924 27.2886C138.879 26.6752 140.823 24.052 140.823 20.5282L140.797 20.5282Z" fill="#1E1E1C"/>
<path d="M152.146 12.1884C155.128 8.35142 162.116 8.54718 164.782 11.6664C166.11 13.1762 166.834 15.117 166.818 17.1216C166.818 21.6242 166.818 31.3863 166.818 31.3863H161.84C161.84 31.3863 161.84 22.5378 161.84 18.5442C161.84 18.2701 161.84 17.9961 161.84 17.735C161.564 15.1249 160.172 13.6632 157.768 13.5718C156.573 13.4535 155.377 13.7927 154.425 14.5203C153.473 15.2479 152.837 16.309 152.645 17.4871C152.547 18.1874 152.508 18.8945 152.527 19.6013C152.527 23.2034 152.527 31.4124 152.527 31.4124H147.47V9.83923H152.107C152.107 9.83923 152.146 11.6403 152.146 12.1884Z" fill="#1E1E1C"/>
<path d="M70.7456 6.13288V2.00879L65.8066 3.50965C65.8066 12.6453 65.8066 22.316 65.8066 31.3864H70.7719C70.7325 23.2818 70.7456 14.2375 70.7456 6.13288Z" fill="#1E1E1C"/>
<path d="M120.134 9.83913V5.49316H115.13V9.83913H113.238V13.9371H115.09V31.3862H120.095V13.9371H123.09C123.629 12.9691 124.291 12.0743 125.06 11.2747C125.623 10.741 126.234 10.2604 126.886 9.83913H120.134Z" fill="#1E1E1C"/>
<path d="M54.602 24.652C54.4312 22.0419 52.8681 20.293 49.8994 19.4317C48.8354 19.1054 47.7189 18.9227 46.6418 18.6616C45.4305 18.5224 44.2503 18.1873 43.1478 17.6698C42.8751 17.5142 42.6442 17.2957 42.4745 17.0327C42.3049 16.7696 42.2015 16.4699 42.1731 16.1588C42.1448 15.8476 42.1923 15.5343 42.3116 15.2453C42.431 14.9563 42.6187 14.7001 42.8588 14.4984C43.3538 14.1051 43.9284 13.8223 44.5433 13.6694C45.1582 13.5164 45.799 13.4969 46.4222 13.612C47.0454 13.7272 47.6363 13.9744 48.1547 14.3368C48.6731 14.6992 49.1069 15.1683 49.4265 15.7121V15.8166C49.5317 16.0254 49.6236 16.2603 49.6236 16.2603L49.8338 16.195L54.1159 14.8899C54.1259 14.8163 54.1259 14.7417 54.1159 14.6681C53.5625 12.9994 52.394 11.6006 50.8452 10.7528C49.3084 9.92578 47.5883 9.49268 45.8405 9.49268C44.0928 9.49268 42.3727 9.92578 40.8359 10.7528C39.6535 11.3515 38.6887 12.3022 38.0765 13.4721C37.4642 14.642 37.2349 15.9726 37.4207 17.2782C37.5666 18.4723 38.1011 19.5864 38.9428 20.451C39.7845 21.3156 40.8874 21.8833 42.0838 22.0679C43.9884 22.5117 45.9193 22.8771 47.7977 23.373C49.1113 23.7384 49.7812 24.4954 49.7943 25.4742C49.7772 26.0512 49.5681 26.6062 49.1997 27.0525C48.8313 27.4988 48.3244 27.8112 47.7583 27.9408C47.1446 28.1483 46.5019 28.2584 45.8537 28.2671H45.3808H45.1444C44.3165 28.1266 43.5316 27.801 42.8489 27.3149C42.1662 26.8288 41.6037 26.1949 41.2037 25.4612L36.8164 26.7662C37.2019 27.7888 37.7984 28.7199 38.5675 29.4998C39.3366 30.2797 40.2614 30.8912 41.2825 31.2949C42.765 31.8811 44.3507 32.1658 45.9459 32.1322C47.5411 32.0986 49.1132 31.7473 50.5693 31.0992C51.8723 30.6301 52.9785 29.7392 53.7099 28.5698C54.4414 27.4003 54.7556 26.0204 54.602 24.652Z" fill="#1E1E1C"/>
<path d="M112.727 24.6522C112.543 22.042 110.993 20.2932 108.011 19.4318C106.947 19.1056 105.844 18.9228 104.753 18.6618C103.546 18.5225 102.37 18.1875 101.272 17.67C101 17.5144 100.769 17.2959 100.599 17.0328C100.43 16.7698 100.326 16.4701 100.298 16.1589C100.27 15.8478 100.317 15.5345 100.436 15.2455C100.556 14.9565 100.743 14.7003 100.984 14.4986C101.478 14.1031 102.052 13.8186 102.667 13.6644C103.283 13.5102 103.924 13.4901 104.548 13.6054C105.172 13.7207 105.763 13.9687 106.282 14.3323C106.8 14.696 107.233 15.1668 107.551 15.7123V15.8168C107.656 16.0256 107.748 16.2605 107.748 16.2605L107.945 16.1952L112.241 14.8901C112.245 14.8162 112.245 14.7421 112.241 14.6682C111.678 13.0046 110.512 11.6088 108.97 10.7529C107.429 9.93047 105.708 9.5 103.959 9.5C102.21 9.5 100.488 9.93047 98.9475 10.7529C97.7676 11.3547 96.8052 12.3059 96.1934 13.475C95.5815 14.6441 95.3505 15.9732 95.5322 17.2784C95.6789 18.4744 96.2153 19.5899 97.0596 20.4547C97.9039 21.3195 99.0098 21.8861 100.209 22.0681C102.113 22.5118 104.031 22.8773 105.922 23.3732C107.236 23.7386 107.893 24.4956 107.919 25.4744C107.902 26.0513 107.693 26.6064 107.324 27.0527C106.956 27.499 106.449 27.8114 105.883 27.941C105.269 28.1462 104.626 28.2562 103.978 28.2673H103.519H103.269C102.455 28.1176 101.685 27.7876 101.016 27.3019C100.348 26.8161 99.7977 26.1871 99.4072 25.4613L95.0068 26.7664C95.3938 27.7902 95.9923 28.7221 96.7637 29.5021C97.5352 30.2821 98.4626 30.8929 99.4861 31.2951C100.966 31.881 102.55 32.1655 104.143 32.1319C105.736 32.0982 107.306 31.7471 108.76 31.0993C110.05 30.6189 111.142 29.7231 111.861 28.5547C112.58 27.3864 112.885 26.0126 112.727 24.6522Z" fill="#1E1E1C"/>
<path d="M93.8902 17.4479C91.8016 8.63849 81.9106 7.4378 76.814 11.6271C74.9066 13.3619 73.5935 15.6463 73.0588 18.16C72.524 20.6737 72.7945 23.2906 73.8322 25.6439C74.6184 27.5636 75.9871 29.1922 77.748 30.3032C79.5089 31.4142 81.5745 31.9525 83.6576 31.843C85.517 31.9212 87.3616 31.4842 88.9853 30.5807C90.6091 29.6773 91.948 28.343 92.8525 26.7271L88.4521 25.422C88.4521 25.422 88.1631 25.683 87.9004 25.931C87.1572 26.6715 86.2295 27.2029 85.2121 27.471C84.1947 27.7391 83.1239 27.7342 82.109 27.4569C81.0941 27.1796 80.1714 26.6398 79.435 25.8925C78.6987 25.1453 78.175 24.2173 77.9174 23.2033C77.6153 22.107 77.6809 22.0679 77.6809 22.0679H94.0084C94.228 20.5321 94.1881 18.9706 93.8902 17.4479ZM89.2271 18.3092C87.572 18.3092 85.1682 18.3092 83.5131 18.3092C81.858 18.3092 79.4674 18.3092 77.8123 18.3092C77.8123 18.3092 77.8123 18.2047 77.9568 17.5653C78.2928 16.3233 79.0442 15.2318 80.0874 14.4704C81.1307 13.709 82.4037 13.323 83.6971 13.376C84.942 13.3434 86.1602 13.7385 87.1461 14.4946C88.1319 15.2506 88.8252 16.3213 89.1089 17.5262C89.1826 17.7809 89.2223 18.0442 89.2271 18.3092Z" fill="#1E1E1C"/>
<path d="M189.977 17.4479C187.888 8.63849 178.01 7.4378 172.901 11.6271C170.986 13.3565 169.665 15.6395 169.125 18.1543C168.586 20.6691 168.854 23.2887 169.893 25.6439C170.724 27.4009 172.018 28.9021 173.637 29.9891C175.256 31.0761 177.14 31.7085 179.091 31.8195C181.042 31.9304 182.987 31.5158 184.72 30.6195C186.454 29.7231 187.911 28.3783 188.939 26.7271L184.552 25.422C184.552 25.422 184.263 25.683 184 25.931C183.257 26.6715 182.329 27.2029 181.312 27.471C180.294 27.739 179.224 27.7342 178.209 27.4569C177.194 27.1796 176.271 26.6398 175.535 25.8925C174.798 25.1453 174.275 24.2173 174.017 23.2033C173.715 22.107 173.781 22.0679 173.781 22.0679H190.121C190.332 20.5306 190.283 18.9692 189.977 17.4479ZM185.314 18.3092C183.659 18.3092 181.255 18.3092 179.6 18.3092C177.945 18.3092 175.554 18.3092 173.899 18.3092C173.899 18.3092 173.899 18.2047 174.043 17.5653C174.379 16.3233 175.13 15.2318 176.173 14.4704C177.217 13.709 178.49 13.3231 179.783 13.376C181.028 13.3434 182.246 13.7385 183.232 14.4945C184.218 15.2505 184.911 16.3213 185.195 17.5262C185.268 17.781 185.309 18.0442 185.314 18.3092Z" fill="#1E1E1C"/>
<path d="M62.2072 13.6372H57.1895V31.3865H62.2072V13.6372Z" fill="#1E1E1C"/>
<path d="M59.6591 10.8961C61.2188 10.8961 62.4833 9.63981 62.4833 8.09013C62.4833 6.54045 61.2188 5.28418 59.6591 5.28418C58.0994 5.28418 56.835 6.54045 56.835 8.09013C56.835 9.63981 58.0994 10.8961 59.6591 10.8961Z" fill="#1E1E1C"/>
<path d="M197.306 13.0238C197.304 13.5834 197.134 14.1296 196.82 14.5937C196.505 15.0577 196.059 15.4186 195.538 15.631C195.017 15.8433 194.444 15.8975 193.892 15.7868C193.34 15.676 192.833 15.4053 192.436 15.0087C192.038 14.6121 191.768 14.1075 191.659 13.5584C191.55 13.0094 191.608 12.4407 191.824 11.9239C192.04 11.4072 192.405 10.9657 192.874 10.6551C193.342 10.3445 193.893 10.1787 194.456 10.1787C194.831 10.1787 195.203 10.2524 195.55 10.3955C195.896 10.5387 196.211 10.7485 196.476 11.0128C196.741 11.2772 196.951 11.5909 197.093 11.936C197.236 12.2811 197.308 12.6508 197.306 13.0238ZM196.952 13.0238C196.953 12.6976 196.889 12.3743 196.764 12.0726C196.639 11.7709 196.455 11.4967 196.223 11.2657C195.991 11.0346 195.716 10.8513 195.413 10.7263C195.109 10.6012 194.784 10.5368 194.456 10.5368C194.127 10.5368 193.802 10.6012 193.499 10.7263C193.196 10.8513 192.92 11.0346 192.688 11.2657C192.457 11.4967 192.273 11.7709 192.148 12.0726C192.023 12.3743 191.959 12.6976 191.96 13.0238C191.959 13.3501 192.023 13.6733 192.148 13.975C192.273 14.2767 192.457 14.5509 192.688 14.7819C192.92 15.013 193.196 15.1963 193.499 15.3214C193.802 15.4464 194.127 15.5108 194.456 15.5108C194.784 15.5108 195.109 15.4464 195.413 15.3214C195.716 15.1963 195.991 15.013 196.223 14.7819C196.455 14.5509 196.639 14.2767 196.764 13.975C196.889 13.6733 196.953 13.3501 196.952 13.0238ZM195.638 14.4725H195.244L194.614 13.2979H193.865V14.4725H193.497V11.5621H194.535C194.657 11.5495 194.781 11.5622 194.899 11.5994C195.016 11.6367 195.124 11.6977 195.217 11.7786C195.31 11.8595 195.384 11.9586 195.436 12.0696C195.488 12.1805 195.517 12.301 195.52 12.4235C195.519 12.5958 195.465 12.7637 195.367 12.9057C195.269 13.0476 195.13 13.1569 194.968 13.2196L195.638 14.4725ZM193.865 12.9455H194.535C194.968 12.9455 195.165 12.7367 195.165 12.4235C195.165 12.1102 194.968 11.9145 194.535 11.9145H193.865V12.9455Z" fill="#1E1E1C"/>
<path d="M23.5749 34.9753C24.1951 34.9689 24.7973 34.7679 25.2957 34.4011C30.2609 31.1384 30.4317 25.0175 26.7537 19.001C23.8245 14.2113 24.4156 10.0611 26.859 6.5765C26.8828 6.54406 26.8973 6.50581 26.9009 6.46582C26.9046 6.42584 26.8973 6.38562 26.8797 6.34946C26.8622 6.31329 26.8351 6.28253 26.8013 6.26046C26.7676 6.23839 26.7284 6.22583 26.6881 6.22412H0.495765C0.436541 6.22412 0.379743 6.2475 0.337866 6.2891C0.295988 6.33071 0.272461 6.38714 0.272461 6.44599V34.7535C0.275612 34.8113 0.30015 34.8659 0.341364 34.9069C0.382578 34.9478 0.437564 34.9722 0.495765 34.9753H23.5749Z" fill="#FF4438"/>
</svg>

<svg width="257" height="43" fill="none" xmlns="http://www.w3.org/2000/svg"><path d="M145.749 20.659a10.774 10.774 0 01-.747 4.344 10.844 10.844 0 01-2.425 3.69 10.927 10.927 0 01-3.703 2.427 10.982 10.982 0 01-4.369.762 11.095 11.095 0 01-4.359-.795 11.04 11.04 0 01-3.693-2.436 10.963 10.963 0 01-2.43-3.683 10.889 10.889 0 01-.775-4.335c-.052-1.5.201-2.995.743-4.396a11.186 11.186 0 012.413-3.759 11.256 11.256 0 013.698-2.523 11.321 11.321 0 018.793 0 11.256 11.256 0 013.698 2.523 11.168 11.168 0 012.412 3.759c.543 1.4.796 2.896.744 4.396v.026zm-4.952-.13a6.85 6.85 0 00-.67-3.198 6.105 6.105 0 00-2.218-2.61 6.16 6.16 0 00-6.599-.117 6.105 6.105 0 00-2.309 2.531 7.858 7.858 0 00-.42 5.755c.19.769.532 1.492 1.004 2.13a6.052 6.052 0 003.975 2.38c.788.118 1.591.08 2.364-.111 2.955-.614 4.899-3.237 4.899-6.76h-.026zm11.349-8.341c2.982-3.837 9.97-3.64 12.636-.522a8.16 8.16 0 012.036 5.456v14.264h-4.978V17.735c-.276-2.61-1.668-4.072-4.072-4.163a4.738 4.738 0 00-3.343.948 4.682 4.682 0 00-1.78 2.967c-.098.7-.137 1.408-.118 2.114v11.811h-5.057V9.84h4.637s.039 1.801.039 2.35zm-81.4-6.055V2.009l-4.94 1.5v27.877h4.966c-.04-8.104-.026-17.148-.026-25.253z" fill="#1E1E1C"/><path d="M120.134 9.84V5.492h-5.004V9.84h-1.892v4.098h1.852v17.45h5.005v-17.45h2.995a12.88 12.88 0 011.97-2.662 12.569 12.569 0 011.826-1.436h-6.752zM54.602 24.652c-.17-2.61-1.734-4.359-4.703-5.22-1.064-.327-2.18-.51-3.257-.77a11.245 11.245 0 01-3.494-.992 1.953 1.953 0 01-.975-1.511 1.934 1.934 0 01.686-1.66 4.424 4.424 0 013.563-.887 4.429 4.429 0 011.733.725c.518.362.952.831 1.271 1.375v.105c.106.208.198.443.198.443l.21-.065 4.282-1.305a.824.824 0 000-.222 6.966 6.966 0 00-3.27-3.915 10.562 10.562 0 00-10.01 0 6.35 6.35 0 00-2.76 2.72 6.294 6.294 0 00-.655 3.805 5.506 5.506 0 001.522 3.173 5.568 5.568 0 003.14 1.617c1.905.444 3.836.81 5.715 1.305 1.313.365 1.983 1.122 1.996 2.101a2.6 2.6 0 01-.594 1.578 2.63 2.63 0 01-1.442.889 6.206 6.206 0 01-1.904.326h-.71a5.562 5.562 0 01-2.295-.952 5.52 5.52 0 01-1.645-1.854l-4.388 1.305a7.824 7.824 0 001.752 2.734 7.884 7.884 0 002.715 1.795 11.996 11.996 0 009.286-.196 6.166 6.166 0 003.14-2.53 6.102 6.102 0 00.893-3.917zm58.125 0c-.184-2.61-1.734-4.359-4.716-5.22-1.064-.326-2.167-.51-3.258-.77a11.17 11.17 0 01-3.481-.992 1.939 1.939 0 01-.288-3.171 4.408 4.408 0 013.564-.894 4.385 4.385 0 013.003 2.107v.105c.105.209.197.444.197.444l.197-.066 4.296-1.305a2.053 2.053 0 000-.222 7.074 7.074 0 00-3.271-3.915 10.642 10.642 0 00-10.022 0 6.376 6.376 0 00-2.755 2.722 6.32 6.32 0 00-.66 3.803 5.507 5.507 0 001.527 3.177 5.568 5.568 0 003.149 1.613c1.904.444 3.822.81 5.713 1.305 1.314.366 1.971 1.123 1.997 2.101a2.596 2.596 0 01-.595 1.579 2.627 2.627 0 01-1.441.888 6.356 6.356 0 01-1.905.326h-.709a5.541 5.541 0 01-2.253-.965 5.498 5.498 0 01-1.609-1.84l-4.4 1.304a7.826 7.826 0 001.757 2.736 7.885 7.885 0 002.722 1.793 11.968 11.968 0 009.274-.196 6.167 6.167 0 003.101-2.544 6.101 6.101 0 00.866-3.903zM93.89 17.448c-2.088-8.81-11.98-10.01-17.076-5.82a12.288 12.288 0 00-3.755 6.532 12.234 12.234 0 00.773 7.484 9.987 9.987 0 003.916 4.66 10.085 10.085 0 005.91 1.539 10.09 10.09 0 005.327-1.262 10.003 10.003 0 003.868-3.854l-4.4-1.305s-.29.261-.553.509a5.96 5.96 0 01-2.688 1.54 5.987 5.987 0 01-3.103-.014 5.958 5.958 0 01-2.674-1.565 5.902 5.902 0 01-1.518-2.689c-.302-1.096-.236-1.135-.236-1.135h16.327a13.85 13.85 0 00-.118-4.62zm-4.663.861H77.813s0-.104.144-.744a5.664 5.664 0 012.13-3.095 5.727 5.727 0 013.61-1.094 5.435 5.435 0 013.45 1.119 5.374 5.374 0 011.962 3.031c.074.255.113.518.118.783zm100.75-.861c-2.089-8.81-11.967-10.01-17.076-5.82a12.267 12.267 0 00-3.776 6.526 12.21 12.21 0 00.768 7.49 10.796 10.796 0 003.744 4.345 10.908 10.908 0 0011.083.63 10.821 10.821 0 004.219-3.892l-4.387-1.305s-.289.261-.552.509a5.96 5.96 0 01-2.688 1.54 5.988 5.988 0 01-3.103-.014 5.956 5.956 0 01-2.674-1.565 5.9 5.9 0 01-1.518-2.689c-.302-1.096-.236-1.135-.236-1.135h16.34a13.865 13.865 0 00-.144-4.62zm-4.663.861h-11.415s0-.104.144-.744a5.664 5.664 0 012.13-3.095 5.73 5.73 0 013.61-1.094 5.435 5.435 0 013.449 1.119 5.375 5.375 0 011.963 3.031c.073.255.114.518.119.783zM62.207 13.637H57.19v17.75h5.017v-17.75zm-2.547-2.741a2.815 2.815 0 002.823-2.806 2.815 2.815 0 00-2.824-2.806 2.815 2.815 0 00-2.824 2.806 2.815 2.815 0 002.824 2.806zm137.646 2.128a2.82 2.82 0 01-.486 1.57 2.849 2.849 0 01-1.282 1.037 2.869 2.869 0 01-3.102-.622 2.823 2.823 0 01-.612-3.085 2.832 2.832 0 011.05-1.269 2.862 2.862 0 014.219 1.281c.143.345.215.715.213 1.088zm-.354 0a2.465 2.465 0 00-.729-1.758 2.497 2.497 0 00-1.767-.73 2.507 2.507 0 00-1.768.73 2.49 2.49 0 00-.728 1.758 2.465 2.465 0 00.728 1.758 2.503 2.503 0 002.725.54 2.499 2.499 0 001.351-1.347c.125-.302.189-.625.188-.951zm-1.314 1.449h-.394l-.63-1.175h-.749v1.175h-.368v-2.91h1.038a.903.903 0 01.682.216.879.879 0 01.303.645.859.859 0 01-.552.796l.67 1.252zm-1.773-1.528h.67c.433 0 .63-.208.63-.521 0-.314-.197-.51-.63-.51h-.67v1.031z" fill="#1E1E1C"/><path d="M23.575 34.975a2.955 2.955 0 001.72-.574c4.966-3.263 5.137-9.384 1.459-15.4-2.93-4.79-2.338-8.94.105-12.425a.22.22 0 00-.058-.316.224.224 0 00-.113-.036H.496a.224.224 0 00-.224.222v28.308a.234.234 0 00.224.221h23.079z" fill="#FF4438"/></svg>
